X:1
T: Crail
P:End adapted by Bruce Shawyer
R:Strathspey
Q: 128
K:D
M:4/4
L:1/16
|:D4 F3G AF3 E3F|Dd3 d3e d3c B3A|BB3 d3B AA3 d3A|G3F E3D CE3 EF3|
D4 F3G AF3 E3F|Dd3 d3e d3c B3A|BB3 d3B AA3 d3A|G3F E3D CE3 EF3|
Dd3 d3e f3e d3A|BB3 b3a g3f e3d|BB3 d3B AA3 d3f|g3f e3d ce3 ef3|
Dd3 d3e f3e d3A|BB3 b3a g3f e3d|BB3 d3B AA3 d3f|e3d e3f d8:|
